src/main/resources/icons/GOPlan9Icons/icons/CPU.svg

<svg xmlns="http://www.w3.org/2000/svg" width="16" height="16" viewBox="0 0 16 16"><rect id="frame" width="16" height="16" fill="none"/><path fill="#9AA7B0" fill-opacity=".8" fill-rule="evenodd" d="M11 10h3v1h-3v2H5v-2H2v-1h3V9H2V8h3V7H2V6h3V4h6v2h3v1h-3v1h3v1h-3v1z"/></svg>

<svg xmlns="http://www.w3.org/2000/svg" width="16" height="16" viewBox="0 0 16 16">
  <path fill="#9AA7B0" fill-opacity=".8" fill-rule="evenodd" d="M11,10 L14,10 L14,11 L11,11 L11,13 L5,13 L5,11 L2,11 L2,10 L5,10 L5,9 L2,9 L2,8 L5,8 L5,7 L2,7 L2,6 L5,6 L5,4 L11,4 L11,6 L14,6 L14,7 L11,7 L11,8 L14,8 L14,9 L11,9 L11,10 Z"/>
</svg>
